!!!OTL@@DE: O du Deutschland
!!!ONB: Volksweise: "So viel Stern' am Himmel stehen"
!!!ODT: 1809-1818
!!!OMD: M&auml;ssig
!!!ONB: Volkslied aus der Zeit 1809-1814
!!!LDT: 1809-1814
!!!OCL: Erk, Ludwig
!!!GCO: Deutscher Liederschatz, Band 1
**kern	**kern	**kern
*staff3	*staff2	*staff1
*Ipiano	*Ipiano	*Ivox
*>[A,A,B]	*>[A,A,B]	*>[A,A,B]
*>norep[A,B]	*>norep[A,B]	*>norep[A,B]
*>A	*>A	*>A
*clefF4	*clefG2	*clefG2
*k[f#]	*k[f#]	*k[f#]
*G:	*G:	*G:
*M3/4	*M3/4	*M3/4
*MM86	*MM86	*MM86
8.D\L	8.d/L	8.d/
16D\Jk	16d/Jk	16d/
=1	=1	=1
4GG/	4B/ 4d/ 4g/	4g/
8G\L	8B/ 8d/ 8g/L	8g/
8c\ 8d\	8f#/ 8a/	8a/
8B\ 8d\	8g/ 8b/	8b\
8A\ 8d\J	8a/ 8cc/J	8cc\
=2	=2	=2
*	*^	*
4G\	8.cc/ (8.ee/L	4g\	(8.ee\L
.	16b/ 16dd/Jk	.	16dd\Jk)
8G\	2ryy	8g\ 8b\ 8dd\)	8dd\
8r	.	8r	8r
8.G\ 8.d\L	.	8.g\ 8.b\L	8.b\
16G\ 16d\Jk	.	16b\ 16dd\Jk	16dd\
=3	=3	=3	=3
4F#\ 4d\	8dd/L	4a\	(8dd\L
.	8cc/J	.	8cc\J)
*	*v	*v	*
8D\ 8d\	8f#/ 8a/ 8cc/	4cc\
8r	8r	.
*	*^	*
4D\ 4d\	8dd/L	4f#\ 4a\	8dd\
.	8cc/J	.	8cc\
*	*v	*v	*
=4	=4	=4
2G\ 2d\	2g/ 2b/	2b\
=:|!	=:|!	=:|!
*>B	*>B	*>B
4G\ 4d\	8.b\ 8.dd\L	8.dd\
.	16g\ 16b\Jk	16b\
=5	=5	=5
4D\ 4d\	(8g'/ 8b'/L	(8b/L
.	8f#/) 8a/J	8a/J)
4d\	4f#/ 4a/	4a/
4F#\ 4d\	8.cc\ 8.ee\L	8.ee\
.	16a\ 16cc\Jk	16cc\
=6	=6	=6
4G\ 4d\	(8a/ 8cc/L	(8cc\L
.	8g/) 8b/J	8b\J)
4G\ 4d\	4g/ 4b/	4b\
4G\ 4d\	8.b\ 8.dd\L	8.dd\
.	16g\ 16b\Jk	16b\
=7	=7	=7
4D\ 4d\	(8g/ 8b/L	(8b/L
.	8f#/) 8a/J	8a/J)
4d\	4f#/ 4a/	4a/
4F#\ 4d\	8.cc\ 8.ee\L	8.ee\
.	16a\ 16cc\Jk	16cc\
=8	=8	=8
4G\ 4d\	(8a/ 8cc/L	(8cc\L
.	8g/) 8b/J	8b'\J)
4G\ 4d\	4g/ 4b/	4b\
8.D\L	8.d/L	8.d/
16D\Jk	16d/Jk	16d/
=9	=9	=9
4.GG/ 4.G/	4.B/ 4.d/ 4.g/	4.g/
8C\ 8c\L	8d/ 8f#/ 8a/L	8a/
8BB\ 8B\	8d/ 8g/ 8b/	8b\
8AA\ 8A\J	8d/ 8f#/ 8a/ 8cc/J	8cc\
=10	=10	=10
*	*^	*
4.GG/ 4.G/	4cc/ (4ee/	4.g\	(4ee\
.	8b/ 8dd/)	.	8dd\)
*	*v	*v	*
8r	8r	8r
4E\ 4e\	8.g#/ 8.b/L	8.b\
.	16g#/ 16b/ 16dd/Jk	16dd\
=11	=11	=11
*	*^	*
4A\ 4e\	4a\	8dd/L	(8dd\L
.	.	8cc/J	8cc\J)
4AA\ 4A\	2ryy	4e/ 4a/ 4cc/	4cc\
4DD/ 4D/	.	8.d/ 8.f#/ 8.a/ 8.dd/L	8.dd\
.	.	16d/ 16f#/ 16a/ 16cc/Jk	16cc\
*	*v	*v	*
=12	=12	=12
2GG;/ 2G;/	2d;/ 2g;/ 2b;/	2b;\
==	==	==
*-	*-	*-
!!!ENC: Craig Stuart Sapp
!!!END: 2004/06/01/
!!!EFL: 138/651
